static/images/mobile/copyright/wikipedia-wordmark-vo.svg

<svg width="120" height="21" viewBox="0 0 120 21" fill="none" xmlns="http://www.w3.org/2000/svg">
<path fill-rule="evenodd" clip-rule="evenodd" d="M120 10.6759C120 4.82057 115.661 0.00233459 110.217 0.00233459C109.22 0.00233459 108.241 0.0213318 107.377 0.0380707C106.668 0.0518188 106.037 0.0640564 105.538 0.0630035C104.524 0.0630035 103.814 0.0456696 102.973 0.025116C102.639 0.0169525 102.284 0.00828552 101.881 0C101.711 0.188995 101.711 0.850494 101.881 1.03949C103.864 1.13399 104.346 1.29263 104.346 3.90475V16.5325C104.346 19.1446 103.864 19.3033 101.881 19.3978C101.711 19.5868 101.711 20.2483 101.881 20.4373C102.155 20.4308 102.409 20.4244 102.65 20.4184C103.629 20.3938 104.406 20.3743 105.566 20.3743C105.96 20.3743 106.374 20.3831 106.891 20.3942C107.753 20.4126 108.903 20.4373 110.729 20.4373C114.726 20.4373 120 18.4236 120 10.6759ZM117.277 11.4331C117.277 17.7936 113.848 19.3698 109.849 19.3698C107.069 19.3698 106.756 18.7701 106.756 17.761V2.61446C106.756 1.51314 107.749 1.07216 109.137 1.07216C115.262 1.07216 117.277 6.58453 117.277 11.4331ZM12.6747 0.00234985C13.03 0.010437 13.3691 0.0186768 13.6878 0.0264282L13.6903 0.026474C14.5667 0.0477905 15.2883 0.0653381 15.7663 0.0653381C16.216 0.0653381 16.6929 0.0503693 17.3175 0.0307465L17.3186 0.0307007L17.324 0.0305176L17.337 0.0301056C17.613 0.0214539 17.9179 0.0119019 18.2617 0.00234985C18.4321 0.190186 18.4321 0.852829 18.2617 1.043C16.4524 1.28552 16.0456 2.4028 15.5282 3.8243L15.4746 3.97127L9.61341 20.0324C9.44891 20.4828 9.24476 20.7569 8.93326 20.7569C8.64977 20.7569 8.45144 20.5236 8.28111 20.0324L2.68122 3.90944L2.6358 3.7802C1.86789 1.59454 1.7288 1.19867 0.142605 1.04416C-0.0277249 0.855164 -0.055721 0.19368 0.114605 0.00468445C0.595906 0.0151978 0.966255 0.0263367 1.29636 0.0362549L1.29874 0.0363464L1.29992 0.0363922C1.88272 0.0539246 2.34067 0.067688 3.06388 0.067688C3.99363 0.067688 4.84258 0.0462494 5.88173 0.0200043C6.0787 0.0150299 6.2825 0.0098877 6.49498 0.00468445C6.66531 0.191345 6.66531 0.855164 6.49498 1.04416C4.56652 1.26349 4.40202 1.68932 5.06001 3.56294L9.57142 16.3785H9.70208L14.1797 3.75194C14.7863 2.03697 14.7746 1.20049 12.6759 1.04416C12.5044 0.854004 12.5044 0.190186 12.6747 0.00234985ZM29.6493 6.86687C29.479 6.67786 29.479 6.01637 29.6493 5.82738C30.4998 5.85889 31.4926 5.89038 32.3431 5.89038C33.1936 5.89038 34.2144 5.86005 35.0649 5.82738C35.2352 6.01637 35.2352 6.67786 35.0649 6.86687C33.3348 7.02435 33.0233 7.12003 33.0233 9.73213V13.3219C33.0233 17.9196 31.8601 20.6904 27.4654 20.6904C25.0551 20.6904 22.3042 19.4001 22.3042 14.6752V9.73213C22.3042 7.12003 21.9927 6.99168 20.2625 6.86687C20.0922 6.67786 20.0922 6.01637 20.2625 5.82738C20.5519 5.83485 20.8126 5.84233 21.0582 5.84941L21.0634 5.84955L21.0666 5.84964L21.0688 5.84969C21.8528 5.87222 22.4845 5.89038 23.4101 5.89038C24.4157 5.89038 25.0906 5.87067 25.9381 5.8459C26.1417 5.83995 26.3552 5.83371 26.5857 5.82738C26.7561 6.01637 26.7561 6.67786 26.5857 6.86687C24.8568 7.02435 24.5441 7.12003 24.5441 9.73213V14.0161C24.5441 16.9455 24.9128 19.6521 27.9472 19.6521C31.6898 19.6521 31.6898 16.4403 31.6898 13.7326V9.73213C31.691 7.12003 31.3783 6.99168 29.6493 6.86687ZM25.4518 0.818985C26.1891 0.818985 26.7852 1.51314 26.7852 2.33212C26.7852 3.14993 26.1902 3.81377 25.4518 3.81377C24.7144 3.81377 24.1183 3.15343 24.1183 2.33212C24.1183 1.5108 24.7144 0.818985 25.4518 0.818985ZM30.2443 0.818985C30.9816 0.818985 31.5778 1.51314 31.5778 2.33212C31.5778 3.14993 30.9828 3.81377 30.2443 3.81377C29.507 3.81377 28.912 3.15343 28.912 2.33212C28.912 1.5108 29.507 0.818985 30.2443 0.818985ZM39.7665 5.82738C39.5961 6.01637 39.5961 6.67786 39.7665 6.86685C41.4966 7.02435 41.8081 7.12003 41.8093 9.7298V16.5325C41.8093 19.1446 41.4966 19.2403 39.7676 19.3978C39.5973 19.5868 39.5973 20.2483 39.7676 20.4373C39.9981 20.4309 40.2117 20.4247 40.4153 20.4187C41.2628 20.394 41.9377 20.3743 42.9432 20.3743C43.6169 20.3743 44.0451 20.3882 44.5883 20.406H44.5884H44.5885H44.5889C44.8912 20.4158 45.2292 20.4268 45.665 20.4373C45.8353 20.2483 45.8353 19.5868 45.665 19.3978C44.3047 19.2403 44.0492 19.1446 44.0492 16.5325V13.6031C44.6734 13.6031 45.3815 13.7606 45.8073 14.3905L48.9549 18.7375C49.3516 19.2414 49.3796 19.5868 49.3796 19.9963V20.4373C49.6911 20.4046 50.4004 20.3743 51.1377 20.3743C51.9322 20.3743 53.3217 20.4046 53.3217 20.4046C53.492 20.2156 53.492 19.5868 53.3217 19.3978C52.5552 19.3033 51.8774 18.9638 51.5064 18.4855L47.3088 13.0069C47.1665 12.8179 47.0533 12.6604 47.0533 12.4714C47.0533 12.2182 47.2236 11.8717 47.7055 11.3071L50.1449 8.1875C51.0047 7.0862 52.0454 6.92752 53.1794 6.86453C53.3497 6.67436 53.3497 6.01288 53.1794 5.82388L52.952 5.83444L52.8646 5.83856L52.8403 5.83971L52.8398 5.83975L52.8375 5.83984C52.2554 5.86731 51.8154 5.88805 51.1937 5.88805C50.5043 5.88805 49.6354 5.86508 48.6543 5.83913L48.6469 5.83894L48.6459 5.8389L48.0741 5.82388C47.9038 6.01405 47.9038 6.67554 48.0741 6.86453C49.4928 6.95903 49.2093 7.77802 47.0253 10.5173C45.8143 12.0363 44.9837 12.5332 44.048 12.5332V9.73213C44.048 7.12003 44.3024 7.02435 45.6638 6.86685C45.8342 6.67786 45.8342 6.01637 45.6638 5.82738C45.2833 5.83759 44.9774 5.84756 44.7046 5.85646H44.7043H44.704H44.7037H44.7034H44.703H44.7028H44.7028C44.1026 5.87604 43.6628 5.89038 42.9421 5.89038C41.9702 5.89038 41.3079 5.87126 40.4992 5.84792C40.2702 5.84129 40.0294 5.83434 39.7665 5.82738ZM62.8718 16.5348C62.8718 19.1481 63.1857 19.2764 64.9135 19.4001C65.0838 19.5891 65.0838 20.2506 64.9135 20.4407C64.6057 20.4328 64.3305 20.4248 64.0715 20.4172H64.0712C63.3044 20.3948 62.6788 20.3766 61.7659 20.3766C60.7781 20.3766 60.1102 20.3963 59.2833 20.4208C59.0661 20.4272 58.838 20.4339 58.5902 20.4407C58.4199 20.2517 58.4199 19.5903 58.5902 19.4001C60.3192 19.2414 60.6319 19.1481 60.6319 16.5348V9.73213C60.6319 7.12001 60.3192 6.99168 58.5902 6.86685C58.4199 6.67786 58.4199 6.01637 58.5902 5.82738C58.8837 5.83496 59.1476 5.84254 59.3962 5.84969L59.3974 5.84973H59.3977C60.1812 5.87224 60.8127 5.89038 61.7379 5.89038C62.7428 5.89038 63.4157 5.87074 64.2597 5.84608L64.2632 5.84599L64.2641 5.84595C64.4682 5.83998 64.6822 5.83372 64.9135 5.82738C65.0838 6.01637 65.0838 6.67786 64.9135 6.86685C63.1857 7.02435 62.8718 7.12001 62.8718 9.73213V16.5348ZM76.5647 20.4407C76.7351 20.2506 76.7351 19.5891 76.5647 19.4001C74.8358 19.2764 74.5231 19.1481 74.5231 16.5348V14.2039C75.0318 14.457 75.6011 14.5819 76.3092 14.5819C80.1101 14.5819 81.2721 11.5579 81.2721 9.66913C81.2721 8.03233 80.4193 5.82738 76.3932 5.82738C75.8284 5.82738 75.2214 5.84569 74.6621 5.86256C74.184 5.877 73.7406 5.89038 73.388 5.89038C72.4629 5.89038 71.8328 5.87225 71.051 5.84976H71.0507H71.05C70.8008 5.84261 70.5361 5.83499 70.2415 5.82738C70.0712 6.01637 70.0712 6.67786 70.2415 6.86685C71.9693 6.99168 72.2831 7.12001 72.2831 9.73213V16.5348C72.2831 19.1481 71.9693 19.2414 70.2415 19.4001C70.0712 19.5903 70.0712 20.2517 70.2415 20.4407C70.4893 20.4339 70.7174 20.4272 70.9346 20.4208C71.7614 20.3963 72.4294 20.3766 73.4171 20.3766C74.3295 20.3766 74.9556 20.3948 75.7231 20.4172L75.7258 20.4173L75.7302 20.4174C75.9871 20.4249 76.2599 20.4329 76.5647 20.4407ZM76.3664 13.5435C75.7994 13.5435 75.0901 13.4502 74.5231 13.1971V8.28433C74.5231 7.27751 74.8626 6.86685 76.2252 6.86685C77.8982 6.86685 78.8047 7.83984 78.8047 10.0483C78.8047 12.3186 78.0662 13.5435 76.3664 13.5435ZM90.6834 13.2939V18.0165C90.6834 18.6138 91.0801 19.4024 91.5899 19.4024H93.9442C95.7303 19.4024 96.5528 17.8275 97.0066 15.9713C97.3193 15.8757 97.5456 15.9398 97.8023 16.0962C97.6039 17.4191 97.2913 19.1493 96.9518 20.4419C96.9518 20.4419 95.0805 20.3789 93.9465 20.3789H89.5786C89.5786 20.3789 87.5942 20.4093 86.4018 20.4419C86.2315 20.2529 86.2315 19.5914 86.4018 19.4024C88.1308 19.2449 88.4435 19.1493 88.4435 16.5372V9.73447C88.4435 7.12119 88.1308 6.99519 86.4018 6.8692C86.2315 6.68019 86.2315 6.01871 86.4018 5.82855C87.621 5.86005 89.5483 5.89272 89.5483 5.89272H95.4177C95.854 5.89272 96.072 5.85472 96.3311 5.80957C96.4087 5.79604 96.49 5.78186 96.582 5.76788C96.6391 5.76788 96.6648 5.79822 96.6648 5.86356C96.7231 6.08287 97.0626 8.53867 97.1758 9.60965C96.9495 9.73448 96.6928 9.79863 96.4105 9.76714C95.8995 7.97401 95.532 6.93219 93.7739 6.93219H91.5887C91.0509 6.93219 90.6834 7.28102 90.6834 7.81418V12.2871H92.3004C94.1935 12.2582 94.2042 11.9691 94.2508 10.712L94.2509 10.7089C94.2531 10.6492 94.2554 10.5873 94.258 10.5231C94.3992 10.3645 94.9102 10.3645 95.0525 10.5231C95.0472 10.6715 95.0419 10.812 95.0368 10.9481L95.0366 10.9515L95.0366 10.9516C95.0145 11.5375 94.9953 12.0438 94.9953 12.7584C94.9953 13.4251 95.0113 13.8758 95.0317 14.4506C95.0383 14.6363 95.0454 14.8349 95.0525 15.0579C94.9102 15.2165 94.3992 15.2165 94.258 15.0579C94.2543 14.9829 94.2514 14.9102 94.2485 14.84L94.2485 14.8397C94.2067 13.8187 94.1853 13.2939 92.3004 13.2939H90.6834Z" fill="black"/>
</svg>

<svg xmlns="http://www.w3.org/2000/svg" width="120" height="21" fill="none"><path fill="#000" fill-rule="evenodd" d="M120 10.676C120 4.82 115.661.002 110.217.002c-.997 0-1.976.02-2.84.036-.709.014-1.34.026-1.839.025-1.014 0-1.724-.017-2.565-.038-.334-.008-.689-.017-1.092-.025-.17.189-.17.85 0 1.04 1.983.094 2.465.253 2.465 2.865v12.627c0 2.613-.482 2.771-2.465 2.866-.17.189-.17.85 0 1.04l.769-.02c.979-.024 1.756-.044 2.916-.044.394 0 .808.01 1.325.02.862.019 2.012.043 3.838.043 3.997 0 9.271-2.013 9.271-9.761Zm-2.723.757c0 6.36-3.429 7.937-7.428 7.937-2.78 0-3.093-.6-3.093-1.609V2.614c0-1.1.993-1.542 2.381-1.542 6.125 0 8.14 5.513 8.14 10.361ZM12.675.003c.355.007.694.016 1.013.023h.002c.877.022 1.598.04 2.076.04.45 0 .927-.016 1.551-.035h.02c.276-.01.58-.02.925-.029.17.188.17.85 0 1.041-1.81.243-2.216 1.36-2.734 2.781l-.053.147-5.862 16.061c-.164.45-.368.725-.68.725-.283 0-.482-.233-.652-.725L2.681 3.91l-.045-.129C1.868 1.595 1.729 1.2.143 1.044-.027.855-.056.194.115.004c.48.011.851.022 1.181.032H1.3c.584.018 1.042.032 1.765.032.93 0 1.779-.022 2.818-.048l.613-.015c.17.186.17.85 0 1.04-1.928.218-2.093.644-1.435 2.518l4.511 12.815h.131L14.18 3.752c.606-1.715.595-2.552-1.504-2.708-.172-.19-.172-.854-.001-1.042Zm16.974 6.864c-.17-.19-.17-.85 0-1.04.85.032 1.844.063 2.694.063.85 0 1.871-.03 2.722-.063.17.19.17.85 0 1.04-1.73.157-2.042.253-2.042 2.865v3.59c0 4.598-1.163 7.368-5.558 7.368-2.41 0-5.16-1.29-5.16-6.015V9.732c0-2.612-.312-2.74-2.043-2.865-.17-.19-.17-.85 0-1.04l.796.022H21.07c.784.023 1.416.041 2.341.041 1.006 0 1.68-.02 2.528-.044l.648-.019c.17.19.17.85 0 1.04-1.73.157-2.042.253-2.042 2.865v4.284c0 2.93.369 5.636 3.403 5.636 3.743 0 3.743-3.212 3.743-5.92v-4c.001-2.612-.312-2.74-2.04-2.865ZM25.452.819c.737 0 1.333.694 1.333 1.513 0 .818-.595 1.482-1.333 1.482s-1.334-.66-1.334-1.482c0-.821.596-1.513 1.334-1.513Zm4.792 0c.738 0 1.334.694 1.334 1.513 0 .818-.595 1.482-1.334 1.482-.737 0-1.332-.66-1.332-1.482 0-.821.595-1.513 1.332-1.513Zm9.523 5.008c-.17.19-.17.85 0 1.04 1.73.157 2.041.253 2.042 2.863v6.802c0 2.613-.312 2.708-2.041 2.866-.17.189-.17.85 0 1.04l.647-.02c.848-.024 1.523-.044 2.528-.044.674 0 1.102.014 1.645.032.303.01.641.02 1.077.031.17-.189.17-.85 0-1.04-1.36-.157-1.616-.252-1.616-2.864v-2.93c.624 0 1.333.158 1.758.787l3.148 4.348c.397.503.425.849.425 1.258v.441a20.83 20.83 0 0 1 1.758-.063c.794 0 2.184.03 2.184.03.17-.188.17-.817 0-1.006-.767-.095-1.445-.434-1.816-.913l-4.197-5.478c-.142-.19-.256-.347-.256-.536 0-.253.17-.6.653-1.164l2.439-3.12c.86-1.1 1.9-1.26 3.034-1.322.17-.19.17-.852 0-1.041l-.227.01-.087.005h-.028c-.582.028-1.022.049-1.643.049-.69 0-1.559-.023-2.54-.049h-.008l-.572-.015c-.17.19-.17.852 0 1.04 1.419.095 1.135.914-1.049 3.653-1.21 1.52-2.041 2.016-2.977 2.016v-2.8c0-2.613.254-2.709 1.616-2.866.17-.19.17-.85 0-1.04-.38.01-.687.02-.96.03h-.001c-.6.019-1.04.033-1.76.033-.973 0-1.635-.019-2.444-.042-.229-.007-.47-.014-.733-.02Zm23.105 10.708c0 2.613.314 2.741 2.041 2.865.17.19.17.85 0 1.04-.307-.007-.582-.015-.841-.023a70.814 70.814 0 0 0-2.306-.04c-.988 0-1.656.02-2.483.044l-.693.02c-.17-.19-.17-.85 0-1.04 1.73-.16 2.042-.253 2.042-2.866V9.732c0-2.612-.313-2.74-2.042-2.865-.17-.19-.17-.85 0-1.04l.806.023h.001c.784.022 1.416.04 2.34.04 1.006 0 1.679-.02 2.523-.044h.004l.65-.019c.17.19.17.85 0 1.04-1.728.157-2.042.253-2.042 2.865v6.803Zm13.693 3.906c.17-.19.17-.852 0-1.04-1.73-.125-2.042-.253-2.042-2.866v-2.331c.509.253 1.078.378 1.786.378 3.801 0 4.963-3.024 4.963-4.913 0-1.637-.853-3.842-4.879-3.842-.565 0-1.172.019-1.73.036-.479.014-.922.027-1.275.027-.925 0-1.555-.018-2.337-.04h-.001l-.808-.023c-.17.19-.17.85 0 1.04 1.727.125 2.041.253 2.041 2.865v6.803c0 2.613-.314 2.706-2.041 2.865-.17.19-.17.852 0 1.04.247-.006.475-.013.693-.02a74.934 74.934 0 0 1 2.482-.043c.912 0 1.539.018 2.306.04h.007l.835.024Zm-.199-6.897c-.567 0-1.276-.094-1.843-.347V8.284c0-1.006.34-1.417 1.702-1.417 1.673 0 2.58.973 2.58 3.181 0 2.27-.739 3.495-2.439 3.495Zm14.317-.25v4.723c0 .597.397 1.385.907 1.385h2.354c1.786 0 2.609-1.575 3.063-3.43.312-.096.539-.032.795.124-.198 1.323-.51 3.053-.85 4.346 0 0-1.871-.063-3.005-.063h-4.368s-1.985.03-3.177.063c-.17-.19-.17-.85 0-1.04 1.729-.157 2.041-.253 2.041-2.865V9.734c0-2.613-.312-2.739-2.041-2.865-.17-.189-.17-.85 0-1.04 1.219.031 3.146.064 3.146.064h5.87c.436 0 .654-.038.913-.083.078-.014.159-.028.251-.042.057 0 .083.03.083.096.058.219.398 2.675.51 3.746a1.268 1.268 0 0 1-.764.157c-.511-1.793-.879-2.835-2.637-2.835h-2.185c-.538 0-.906.349-.906.882v4.473H92.3c1.894-.029 1.904-.318 1.95-1.575v-.003l.008-.186c.141-.159.652-.159.794 0l-.015.425v.003c-.023.586-.042 1.093-.042 1.807 0 .667.016 1.118.037 1.693l.02.607c-.142.159-.653.159-.794 0l-.01-.218c-.041-1.021-.063-1.546-1.948-1.546h-1.617Z" clip-rule="evenodd"/></svg>
